X:1
T: The Good Natured Man
T: Tim the Turncoat
T: The Steam Boat
C:
R:Reel
Q: 232
K:A
M:4/4
L:1/8
|:cd|e2 ae c2 ec|A2 cA E2 AE|F2 BA GB ec|de cd Bc df|
e2 ae c2 ec|A2 cA E2 AE|Ff ed cB AG|1A2 A2 AB cd:|2A2 A2 A2|
|:cd|e^d ef ec Ac|dc de dB GB|AB cd ef ga|ba gf ed cd|
e^d ef ec Ac|dc de dB GB|Af ed cB AG|1A2 A2 AB:|2A2 A2 A2||
